germany/municipalities/07131208.svg

<?xml version="1.0" encoding="UTF-8" standalone="no"?>
<!-- Created with Inkscape (http://www.inkscape.org/) -->

<svg
   xmlns:dc="http://purl.org/dc/elements/1.1/"
   xmlns:cc="http://creativecommons.org/ns#"
   xmlns:rdf="http://www.w3.org/1999/02/22-rdf-syntax-ns#"
   xmlns:svg="http://www.w3.org/2000/svg"
   xmlns="http://www.w3.org/2000/svg"
   xmlns:sodipodi="http://sodipodi.sourceforge.net/DTD/sodipodi-0.dtd"
   xmlns:inkscape="http://www.inkscape.org/namespaces/inkscape"
   width="197.93207mm"
   height="209.34358mm"
   viewBox="0 0 701.3341 741.76859"
   id="svg18148"
   version="1.1"
   inkscape:version="0.91 r13725"
   sodipodi:docname="DEU Spessart COA.svg">
  <defs
     id="defs18150">
    <inkscape:path-effect
       effect="spiro"
       id="path-effect19388"
       is_visible="true" />
    <inkscape:path-effect
       effect="spiro"
       id="path-effect19219"
       is_visible="true" />
    <inkscape:path-effect
       effect="spiro"
       id="path-effect19045"
       is_visible="true" />
    <inkscape:path-effect
       effect="spiro"
       id="path-effect19045-4"
       is_visible="true" />
    <inkscape:path-effect
       effect="spiro"
       id="path-effect19045-8"
       is_visible="true" />
    <inkscape:path-effect
       effect="spiro"
       id="path-effect19045-4-0"
       is_visible="true" />
  </defs>
  <sodipodi:namedview
     id="base"
     pagecolor="#ffffff"
     bordercolor="#666666"
     borderopacity="1.0"
     inkscape:pageopacity="0.0"
     inkscape:pageshadow="2"
     inkscape:zoom="0.72798985"
     inkscape:cx="350.66704"
     inkscape:cy="370.88431"
     inkscape:document-units="px"
     inkscape:current-layer="layer1"
     showgrid="false"
     inkscape:window-width="1366"
     inkscape:window-height="745"
     inkscape:window-x="-8"
     inkscape:window-y="-8"
     inkscape:window-maximized="1"
     fit-margin-top="0"
     fit-margin-left="0"
     fit-margin-right="0"
     fit-margin-bottom="0"
     inkscape:snap-midpoints="true"
     inkscape:snap-smooth-nodes="true"
     inkscape:object-nodes="true"
     inkscape:snap-nodes="true"
     inkscape:object-paths="true" />
  <metadata
     id="metadata18153">
    <rdf:RDF>
      <cc:Work
         rdf:about="">
        <dc:format>image/svg+xml</dc:format>
        <dc:type
           rdf:resource="http://purl.org/dc/dcmitype/StillImage" />
        <dc:title></dc:title>
      </cc:Work>
    </rdf:RDF>
  </metadata>
  <g
     inkscape:label="Ebene 1"
     inkscape:groupmode="layer"
     id="layer1"
     transform="translate(-25.303685,-24.28225)">
    <path
       style="fill:#009900;fill-opacity:1;fill-rule:evenodd;stroke:none;stroke-width:11;stroke-opacity:1"
       inkscape:connector-curvature="0"
       d="m 30.983405,29.782248 13.398,416.624412 c 7.415,175.24977 153.919775,314.04607 331.589255,314.14417 177.50972,-0.2149 324.06939,-139.0612 331.58941,-314.14417 l 13.39799,-416.624412 -344.97939,0 z"
       id="path10563-0-7-0" />
    <path
       style="fill:#ffffff;fill-rule:evenodd;stroke:#000000;stroke-width:11;stroke-opacity:1"
       d="M 5.6796875 5.5 L 19.078125 422.125 C 23.332625 522.67795 73.387701 611.21511 148.83594 668.45312 C 193.96592 636.50708 239.87734 605.62632 275.41797 563.625 C 329.41364 499.81383 354.95031 415.37157 410.79688 353.17383 C 466.64344 290.97609 547.85854 256.52674 605.50781 195.99609 C 642.35067 157.31179 667.71767 110.02931 693.80078 63.105469 L 695.6543 5.5 L 350.67578 5.5 L 5.6796875 5.5 z "
       transform="translate(25.303685,24.28225)"
       id="path10563-0-7" />
    <path
       style="fill:#000000;fill-rule:evenodd;stroke:#000000;stroke-width:11;stroke-linecap:butt;stroke-linejoin:round;stroke-miterlimit:4;stroke-dasharray:none;stroke-opacity:1"
       d="M 616.08398 5.5 C 591.54615 49.727161 567.02344 93.817552 532.30664 130.26953 C 474.65737 190.80017 393.44226 225.24953 337.5957 287.44727 C 281.74914 349.64501 256.21247 434.08727 202.2168 497.89844 C 168.03579 538.29298 124.25867 568.39645 80.8125 599.05859 C 91.932586 614.37014 104.36196 628.68135 117.91602 641.86133 C 163.28045 609.73142 209.49469 578.7449 245.22656 536.51758 C 299.22223 472.70641 324.75891 388.26415 380.60547 326.06641 C 436.45203 263.86867 517.66714 229.41931 575.31641 168.88867 C 620.17841 121.78441 648.02136 61.928731 680.86719 5.5 L 616.08398 5.5 z "
       transform="translate(25.303685,24.28225)"
       id="path19043-0" />
    <path
       style="opacity:1;fill:#ff0000;fill-opacity:1;fill-rule:nonzero;stroke:#000000;stroke-width:11;stroke-linecap:round;stroke-linejoin:round;stroke-miterlimit:4;stroke-dasharray:none;stroke-dashoffset:0;stroke-opacity:1"
       d="m 160.23757,206.90531 0,82.60547 -82.60547,0 0,50.02343 82.60547,0 0,82.60547 50.02344,0 0,-82.60547 82.60352,0 0,-50.02343 -82.60352,0 0,-82.60547 -50.02344,0 z"
       id="rect19238-0"
       inkscape:connector-curvature="0" />
    <path
       inkscape:connector-curvature="0"
       style="opacity:1;fill:#000000;fill-opacity:1;fill-rule:nonzero;stroke:#000000;stroke-width:11;stroke-linecap:round;stroke-linejoin:round;stroke-miterlimit:4;stroke-dasharray:none;stroke-dashoffset:0;stroke-opacity:1"
       d="m 292.86647,74.276405 0,82.605475 -82.60546,0 0,50.02343 82.60546,0 0,82.60547 50.02344,0 0,-82.60547 82.60352,0 0,-50.02343 -82.60352,0 0,-82.605475 -50.02344,0 z"
       id="rect19238-5-4" />
    <path
       style="fill:#ffffff;fill-rule:evenodd;stroke:#000000;stroke-width:5;stroke-linecap:butt;stroke-linejoin:round;stroke-miterlimit:4;stroke-dasharray:none;stroke-opacity:1"
       d="M 431.31641 376.23633 L 431.31641 724.74414 L 437.55664 724.74414 C 469.05822 716.25469 498.74229 703.29095 525.8418 686.57031 L 525.8418 376.23633 C 494.34413 377.24646 462.81408 377.24646 431.31641 376.23633 z "
       transform="translate(25.303685,24.28225)"
       id="path19386-3" />
    <path
       style="fill:#ffffff;fill-rule:evenodd;stroke:#000000;stroke-width:5;stroke-linecap:round;stroke-linejoin:round;stroke-miterlimit:4;stroke-dasharray:none;stroke-opacity:1"
       d="m 482.92314,383.66877 -26.30274,16.84866 26.30274,16.84867 20.95898,0 20.96094,0 26.30273,-16.84867 -26.30273,-16.84866 -20.96094,0 -20.95898,0 z"
       id="path19352-2"
       inkscape:connector-curvature="0" />
    <path
       style="fill:none;fill-rule:evenodd;stroke:#000000;stroke-width:5;stroke-linecap:round;stroke-linejoin:miter;stroke-miterlimit:4;stroke-dasharray:none;stroke-opacity:1"
       d="m 482.92314,417.36608 0,325.56991"
       id="path19393-0"
       inkscape:connector-curvature="0" />
    <path
       style="fill:none;fill-rule:evenodd;stroke:#000000;stroke-width:5;stroke-linecap:round;stroke-linejoin:miter;stroke-miterlimit:4;stroke-dasharray:none;stroke-opacity:1"
       d="m 524.84306,417.3661 0,243.3618"
       id="path19395-3"
       inkscape:connector-curvature="0" />
    <path
       style="fill:#ffffff;fill-rule:evenodd;stroke:#000000;stroke-width:5;stroke-linecap:butt;stroke-linejoin:round;stroke-miterlimit:4;stroke-dasharray:none;stroke-opacity:1"
       d="M 499.53906 447.50977 L 499.53906 701.19727 C 535.16513 683.42724 567.1607 659.50142 594.06445 630.81641 L 594.06445 447.50977 C 562.56678 448.5199 531.03673 448.5199 499.53906 447.50977 z "
       transform="translate(25.303685,24.28225)"
       id="path19386" />
    <path
       style="fill:#ffffff;fill-rule:evenodd;stroke:#000000;stroke-width:5;stroke-linecap:round;stroke-linejoin:round;stroke-miterlimit:4;stroke-dasharray:none;stroke-opacity:1"
       d="m 551.14579,454.9424 -26.30274,16.84866 26.30274,16.84867 20.95898,0 20.96094,0 26.30273,-16.84867 -26.30273,-16.84866 -20.96094,0 -20.95898,0 z"
       id="path19352"
       inkscape:connector-curvature="0" />
    <path
       style="fill:none;fill-rule:evenodd;stroke:#000000;stroke-width:5;stroke-linecap:round;stroke-linejoin:miter;stroke-miterlimit:4;stroke-dasharray:none;stroke-opacity:1"
       d="m 551.14579,488.63973 0,223.01755"
       id="path19393"
       inkscape:connector-curvature="0"
       sodipodi:nodetypes="cc" />
    <path
       style="fill:none;fill-rule:evenodd;stroke:#000000;stroke-width:5;stroke-linecap:round;stroke-linejoin:miter;stroke-miterlimit:4;stroke-dasharray:none;stroke-opacity:1"
       d="m 593.06571,488.63973 0,190.67828"
       id="path19395"
       inkscape:connector-curvature="0"
       sodipodi:nodetypes="cc" />
    <g
       id="g19663"
       transform="translate(2,0)">
      <path
         id="path19386-6"
         transform="translate(25.303685,24.28225)"
         d="m 360.8125,498.1543 0,237.94531 c 32.8935,-1.02225 64.63311,-6.80963 94.52539,-16.68359 l 0,-221.26172 c -31.49767,1.01013 -63.02772,1.01013 -94.52539,0 z"
         style="fill:#ffffff;fill-rule:evenodd;stroke:#000000;stroke-width:5;stroke-linecap:butt;stroke-linejoin:round;stroke-miterlimit:4;stroke-dasharray:none;stroke-opacity:1"
         inkscape:connector-curvature="0" />
      <path
         inkscape:connector-curvature="0"
         id="path19352-9"
         d="m 412.41926,505.58647 -26.30274,16.84866 26.30274,16.84867 20.95898,0 20.96094,0 26.30273,-16.84867 -26.30273,-16.84866 -20.96094,0 -20.95898,0 z"
         style="fill:#ffffff;fill-rule:evenodd;stroke:#000000;stroke-width:5;stroke-linecap:round;stroke-linejoin:round;stroke-miterlimit:4;stroke-dasharray:none;stroke-opacity:1" />
      <path
         sodipodi:nodetypes="cc"
         inkscape:connector-curvature="0"
         id="path19393-7"
         d="m 412.41926,539.2838 0,219.48221"
         style="fill:none;fill-rule:evenodd;stroke:#000000;stroke-width:5;stroke-linecap:round;stroke-linejoin:miter;stroke-miterlimit:4;stroke-dasharray:none;stroke-opacity:1" />
      <path
         sodipodi:nodetypes="cc"
         inkscape:connector-curvature="0"
         id="path19395-2"
         d="m 454.33918,539.2838 0,212.54007"
         style="fill:none;fill-rule:evenodd;stroke:#000000;stroke-width:5;stroke-linecap:round;stroke-linejoin:miter;stroke-miterlimit:4;stroke-dasharray:none;stroke-opacity:1" />
      <path
         id="path19386-4"
         transform="translate(25.303685,24.28225)"
         d="m 292.58984,611.19531 0,120.00586 c 18.87379,3.31355 38.27923,5.05743 58.07618,5.06836 12.31281,-0.0149 24.4703,-0.72236 36.44921,-2.03711 l 0,-123.03711 c -31.49767,1.01013 -63.02772,1.01013 -94.52539,0 z"
         style="fill:#ffffff;fill-rule:evenodd;stroke:#000000;stroke-width:5;stroke-linecap:butt;stroke-linejoin:round;stroke-miterlimit:4;stroke-dasharray:none;stroke-opacity:1"
         inkscape:connector-curvature="0" />
      <path
         inkscape:connector-curvature="0"
         id="path19352-8"
         d="m 344.19661,618.62741 -26.30274,16.84866 26.30274,16.84867 20.95898,0 20.96094,0 26.30273,-16.84867 -26.30273,-16.84866 -20.96094,0 -20.95898,0 z"
         style="fill:#ffffff;fill-rule:evenodd;stroke:#000000;stroke-width:5;stroke-linecap:round;stroke-linejoin:round;stroke-miterlimit:4;stroke-dasharray:none;stroke-opacity:1" />
      <path
         sodipodi:nodetypes="cc"
         inkscape:connector-curvature="0"
         id="path19393-8"
         d="m 344.19661,652.32474 0,106.44127"
         style="fill:none;fill-rule:evenodd;stroke:#000000;stroke-width:5;stroke-linecap:round;stroke-linejoin:miter;stroke-miterlimit:4;stroke-dasharray:none;stroke-opacity:1" />
      <path
         sodipodi:nodetypes="cc"
         inkscape:connector-curvature="0"
         id="path19395-1"
         d="m 386.11653,652.32474 0,109.35521"
         style="fill:none;fill-rule:evenodd;stroke:#000000;stroke-width:5;stroke-linecap:round;stroke-linejoin:miter;stroke-miterlimit:4;stroke-dasharray:none;stroke-opacity:1" />
    </g>
    <path
       style="fill:none;fill-rule:evenodd;stroke:#000000;stroke-width:11;stroke-opacity:1"
       inkscape:connector-curvature="0"
       d="m 30.9834,29.78225 13.398,416.62441 c 7.415,175.24977 153.9198,314.04607 331.58926,314.14417 177.5097,-0.2149 324.0694,-139.0612 331.5894,-314.14417 l 13.398,-416.62441 -344.9794,0 z"
       id="path10563-0" />
  </g>
</svg>

<svg xmlns="http://www.w3.org/2000/svg" width="748.09" height="791.22" viewBox="0 0 701.334 741.769"><path style="fill:#090;fill-opacity:1;fill-rule:evenodd;stroke:none;stroke-width:11;stroke-opacity:1" d="m30.983 29.782 13.398 416.625c7.415 175.25 153.92 314.046 331.59 314.144 177.51-.215 324.069-139.061 331.59-314.144l13.397-416.625h-344.98z" transform="translate(-25.304 -24.282)"/><path style="fill:#fff;fill-rule:evenodd;stroke:#000;stroke-width:11;stroke-opacity:1" d="m5.68 5.5 13.398 416.625c4.255 100.553 54.31 189.09 129.758 246.328 45.13-31.946 91.041-62.827 126.582-104.828 53.996-63.811 79.532-148.253 135.379-210.451 55.846-62.198 137.062-96.647 194.71-157.178 36.844-38.684 62.21-85.967 88.294-132.89L695.654 5.5H5.68z"/><path style="fill:#000;fill-rule:evenodd;stroke:#000;stroke-width:11;stroke-linecap:butt;stroke-linejoin:round;stroke-miterlimit:4;stroke-dasharray:none;stroke-opacity:1" d="M616.084 5.5c-24.538 44.227-49.06 88.318-83.777 124.77-57.65 60.53-138.865 94.98-194.711 157.177-55.847 62.198-81.384 146.64-135.38 210.451-34.18 40.395-77.957 70.498-121.404 101.16a331.198 331.198 0 0 0 37.104 42.803c45.364-32.13 91.579-63.116 127.31-105.343 53.996-63.812 79.533-148.254 135.38-210.452 55.846-62.197 137.061-96.647 194.71-157.177C620.178 121.784 648.021 61.929 680.867 5.5h-64.783z"/><path style="opacity:1;fill:red;fill-opacity:1;fill-rule:nonzero;stroke:#000;stroke-width:11;stroke-linecap:round;stroke-linejoin:round;stroke-miterlimit:4;stroke-dasharray:none;stroke-dashoffset:0;stroke-opacity:1" d="M160.238 206.905v82.606H77.632v50.023h82.606v82.606h50.023v-82.606h82.604v-50.023H210.26v-82.606h-50.023z" transform="translate(-25.304 -24.282)"/><path style="opacity:1;fill:#000;fill-opacity:1;fill-rule:nonzero;stroke:#000;stroke-width:11;stroke-linecap:round;stroke-linejoin:round;stroke-miterlimit:4;stroke-dasharray:none;stroke-dashoffset:0;stroke-opacity:1" d="M292.866 74.276v82.606h-82.605v50.023h82.605v82.606h50.024v-82.606h82.603v-50.023H342.89V74.276h-50.024z" transform="translate(-25.304 -24.282)"/><path style="fill:#fff;fill-rule:evenodd;stroke:#000;stroke-width:5;stroke-linecap:butt;stroke-linejoin:round;stroke-miterlimit:4;stroke-dasharray:none;stroke-opacity:1" d="M431.316 376.236v348.508h6.24a333.247 333.247 0 0 0 88.286-38.174V376.236a1474.62 1474.62 0 0 1-94.526 0z"/><path style="fill:#fff;fill-rule:evenodd;stroke:#000;stroke-width:5;stroke-linecap:round;stroke-linejoin:round;stroke-miterlimit:4;stroke-dasharray:none;stroke-opacity:1" d="m482.923 383.669-26.303 16.848 26.303 16.85h41.92l26.303-16.85-26.303-16.848h-41.92z" transform="translate(-25.304 -24.282)"/><path style="fill:none;fill-rule:evenodd;stroke:#000;stroke-width:5;stroke-linecap:round;stroke-linejoin:miter;stroke-miterlimit:4;stroke-dasharray:none;stroke-opacity:1" d="M482.923 417.366v325.57M524.843 417.366v243.362" transform="translate(-25.304 -24.282)"/><path style="fill:#fff;fill-rule:evenodd;stroke:#000;stroke-width:5;stroke-linecap:butt;stroke-linejoin:round;stroke-miterlimit:4;stroke-dasharray:none;stroke-opacity:1" d="M499.54 447.51v253.687a334.151 334.151 0 0 0 94.524-70.38V447.51a1474.62 1474.62 0 0 1-94.525 0z"/><path style="fill:#fff;fill-rule:evenodd;stroke:#000;stroke-width:5;stroke-linecap:round;stroke-linejoin:round;stroke-miterlimit:4;stroke-dasharray:none;stroke-opacity:1" d="m551.146 454.942-26.303 16.85 26.303 16.848h41.919l26.303-16.849-26.302-16.849h-41.921z" transform="translate(-25.304 -24.282)"/><path style="fill:none;fill-rule:evenodd;stroke:#000;stroke-width:5;stroke-linecap:round;stroke-linejoin:miter;stroke-miterlimit:4;stroke-dasharray:none;stroke-opacity:1" d="M551.146 488.64v223.017M593.066 488.64v190.678" transform="translate(-25.304 -24.282)"/><path transform="translate(2)" d="M360.813 498.154V736.1c32.893-1.023 64.633-6.81 94.525-16.684V498.154a1474.62 1474.62 0 0 1-94.526 0z" style="fill:#fff;fill-rule:evenodd;stroke:#000;stroke-width:5;stroke-linecap:butt;stroke-linejoin:round;stroke-miterlimit:4;stroke-dasharray:none;stroke-opacity:1"/><path d="m412.42 505.586-26.303 16.85 26.302 16.848h41.92l26.303-16.849-26.303-16.849h-41.92z" style="fill:#fff;fill-rule:evenodd;stroke:#000;stroke-width:5;stroke-linecap:round;stroke-linejoin:round;stroke-miterlimit:4;stroke-dasharray:none;stroke-opacity:1" transform="translate(-23.304 -24.282)"/><path d="M412.42 539.284v219.482M454.34 539.284v212.54" style="fill:none;fill-rule:evenodd;stroke:#000;stroke-width:5;stroke-linecap:round;stroke-linejoin:miter;stroke-miterlimit:4;stroke-dasharray:none;stroke-opacity:1" transform="translate(-23.304 -24.282)"/><path transform="translate(2)" d="M292.59 611.195v120.006a336.728 336.728 0 0 0 58.076 5.069 337.682 337.682 0 0 0 36.45-2.038V611.195a1474.62 1474.62 0 0 1-94.526 0z" style="fill:#fff;fill-rule:evenodd;stroke:#000;stroke-width:5;stroke-linecap:butt;stroke-linejoin:round;stroke-miterlimit:4;stroke-dasharray:none;stroke-opacity:1"/><path d="m344.197 618.627-26.303 16.85 26.303 16.848h41.919l26.303-16.849-26.302-16.849h-41.921z" style="fill:#fff;fill-rule:evenodd;stroke:#000;stroke-width:5;stroke-linecap:round;stroke-linejoin:round;stroke-miterlimit:4;stroke-dasharray:none;stroke-opacity:1" transform="translate(-23.304 -24.282)"/><path d="M344.197 652.325v106.441M386.117 652.325V761.68" style="fill:none;fill-rule:evenodd;stroke:#000;stroke-width:5;stroke-linecap:round;stroke-linejoin:miter;stroke-miterlimit:4;stroke-dasharray:none;stroke-opacity:1" transform="translate(-23.304 -24.282)"/><path style="fill:none;fill-rule:evenodd;stroke:#000;stroke-width:11;stroke-opacity:1" d="m30.983 29.782 13.398 416.625c7.415 175.25 153.92 314.046 331.59 314.144 177.51-.215 324.07-139.061 331.59-314.144l13.397-416.625h-344.98z" transform="translate(-25.304 -24.282)"/></svg>
